**harmony	**harte	**kern	**silbe	**rhyme	**timestamp	**phrase
*M4/4	*M4/4	*ICvox	*	*	*	*
*	*	*VRlead	*	*	*	*
*	*	*Hstimme	*	*	*	*
*a:	*a:	*a:	*	*	*a:	*a:
*	*	*M4/4	*	*	*	*
*	*	*clefG2	*	*	*	*
1r;	1r	r;	.	.	0	.
=1	=1	=1	=1	=1	=1	=1
*>Letter>C	*>Letter>C	*>Letter>C	*>Letter>C	*>Letter>C	*>Letter>C	*>Letter>C
*>Label>Intro	*>Label>Intro	*>Label>Intro	*>Label>Intro	*>Label>Intro	*>Label>Intro	*>Label>Intro
1Am	A:min	1r	.	.	0.283	newline
=2	=2	=2	=2	=2	=2	=2
1Am	A:min/b7	1r	.	.	1.94	.
=3	=3	=3	=3	=3	=3	=3
1Am	A:min/6	1r	.	.	3.598	.
=4	=4	=4	=4	=4	=4	=4
2FMM	F:maj7	1r	.	.	5.256	.
2EMm	E:7	.	.	.	6.084	.
=5	=5	=5	=5	=5	=5	=5
1Am	A:min	1r	.	.	6.913	newline
=6	=6	=6	=6	=6	=6	=6
1Am	A:min/b7	1r	.	.	8.561	.
=7	=7	=7	=7	=7	=7	=7
1Am	A:min/6	1r	.	.	10.209	.
=8	=8	=8	=8	=8	=8	=8
2FMM	F:maj7	1r	.	.	11.857	.
2EMm	E:7	.	.	.	12.681	.
=9	=9	=9	=9	=9	=9	=9
1Am	A:min	1r	.	.	13.505	newline
=10	=10	=10	=10	=10	=10	=10
1Am	A:min/b7	1r	.	.	15.134	.
=11	=11	=11	=11	=11	=11	=11
1Am	A:min/6	1r	.	.	16.764	.
=12	=12	=12	=12	=12	=12	=12
2FMM	F:maj7	1r	.	.	18.394	.
2EMm	E:7	.	.	.	19.209	.
=13	=13	=13	=13	=13	=13	=13
1Am	A:min	1r	.	.	20.024	newline
=14	=14	=14	=14	=14	=14	=14
1Am	A:min/b7	1r	.	.	21.657	.
=15	=15	=15	=15	=15	=15	=15
1Am	A:min/6	1r	.	.	23.29	.
=16	=16	=16	=16	=16	=16	=16
2FMM	F:maj7	1r	.	.	24.922	.
2EMm	E:7	.	.	.	25.739	.
=17	=17	=17	=17	=17	=17	=17
*>Letter>A	*>Letter>A	*>Letter>A	*>Letter>A	*>Letter>A	*>Letter>A	*>Letter>A
*>Label>Verse	*>Label>Verse	*>Label>Verse	*>Label>Verse	*>Label>Verse	*>Label>Verse	*>Label>Verse
1Am	A:min	2r	.	.	26.555	newline
.	.	8A	Wai-	.	.	.
.	.	4B	-ting	.	.	.
.	.	[8c	for	.	.	.
=18	=18	=18	=18	=18	=18	=18
1Am	A:min/b7	8c]	_	.	28.18	.
.	.	4d	the	.	.	.
.	.	4e	break	.	.	.
.	.	4g	of	.	.	.
.	.	[8a	day.	A	.	.
=19	=19	=19	=19	=19	=19	=19
1Am	A:min/6	4.a]	_	.	29.805	.
.	.	2r	.	.	.	.
.	.	8r	.	.	.	.
=20	=20	=20	=20	=20	=20	=20
2FMM	F:maj7	1r	.	.	31.43	.
2EMm	E:7	.	.	.	32.243	.
=21	=21	=21	=21	=21	=21	=21
1Am	A:min	2r	.	.	33.056	newline
.	.	8A	Search-	.	.	.
.	.	4B	-ing	.	.	.
.	.	[8c	for	.	.	.
=22	=22	=22	=22	=22	=22	=22
1Am	A:min/b7	8c]	_	.	34.68	.
.	.	4d	some-	.	.	.
.	.	4e	-thing	.	.	.
.	.	4g	to	.	.	.
.	.	[8a	say.	A	.	.
=23	=23	=23	=23	=23	=23	=23
1Am	A:min/6	8a]	_	.	36.304	.
.	.	4a	_	.	.	.
.	.	2r	.	.	.	.
.	.	8r	.	.	.	.
=24	=24	=24	=24	=24	=24	=24
2FMM	F:maj7	1r	.	.	37.929	.
2EMm	E:7	.	.	.	38.741	.
=25	=25	=25	=25	=25	=25	=25
1Am	A:min	2r	.	.	39.553	newline
.	.	8a	Fla-	.	.	.
.	.	4b	-shing	.	.	.
.	.	[8cc	lights	.	.	.
=26	=26	=26	=26	=26	=26	=26
1Am	A:min/b7	8cc]	_	.	41.174	.
.	.	4b	a-	.	.	.
.	.	4a	-gainst	.	.	.
.	.	4b	the	.	.	.
.	.	[8a	sky.	B	.	.
=27	=27	=27	=27	=27	=27	=27
1Am	A:min/6	2a]	_	.	42.795	.
.	.	2e	_	.	.	.
=28	=28	=28	=28	=28	=28	=28
2FMM	F:maj7	1r	.	.	44.416	.
2EMm	E:7	.	.	.	45.227	.
=29	=29	=29	=29	=29	=29	=29
1Am	A:min	2r	.	.	46.037	newline
.	.	8A	Giv-	.	.	.
.	.	4B	-ing	.	.	.
.	.	[8c	up	.	.	.
=30	=30	=30	=30	=30	=30	=30
1Am	A:min/b7	8c]	_	.	47.667	.
.	.	4d	I	.	.	.
.	.	4e	close	.	.	.
.	.	4g	my	.	.	.
.	.	[8a	eyes.	B	.	.
=31	=31	=31	=31	=31	=31	=31
1Am	A:min/6	8a]	_	.	49.297	.
.	.	8.a	_	.	.	.
.	.	16g	_	.	.	.
.	.	8e	_	.	.	.
.	.	2r	.	.	.	.
=32	=32	=32	=32	=32	=32	=32
2FMM	F:maj7	1r	.	.	50.926	.
2EMm	E:7	.	.	.	51.741	.
=33	=33	=33	=33	=33	=33	=33
*>Letter>B	*>Letter>B	*>Letter>B	*>Letter>B	*>Letter>B	*>Letter>B	*>Letter>B
*>Label>Chorus	*>Label>Chorus	*>Label>Chorus	*>Label>Chorus	*>Label>Chorus	*>Label>Chorus	*>Label>Chorus
1FM	F:maj	2r	.	.	52.556	newline
.	.	8a	Sit-	.	.	.
.	.	4b	-ting	.	.	.
.	.	[8cc	cross-	.	.	.
=34	=34	=34	=34	=34	=34	=34
1FM	F:maj	8cc]	_	.	54.185	.
.	.	4b	-legged	.	.	.
.	.	4a	on	.	.	.
.	.	4b	the	.	.	.
.	.	[8g	floor.	C	.	.
=35	=35	=35	=35	=35	=35	=35
1CM	C:maj	1g_	_	.	55.813	.
=36	=36	=36	=36	=36	=36	=36
1CM	C:maj	2g]	_	.	57.442	.
.	.	2r	.	.	.	.
=37	=37	=37	=37	=37	=37	=37
1GM	G:maj	2r	.	.	59.07	.
.	.	8g	Twen-	.	.	.
.	.	4a	-ty-	.	.	.
.	.	[8g	-five	.	.	.
=38	=38	=38	=38	=38	=38	=38
1GM	G:maj	8g]	_	.	60.699	.
.	.	4f	or	.	.	.
.	.	4e	six	.	.	.
.	.	4g	to	.	.	.
.	.	[8f	four.	C	.	.
=39	=39	=39	=39	=39	=39	=39
1FM	F:maj	1f]	_	.	62.328	.
=40	=40	=40	=40	=40	=40	=40
1FM	F:maj	2.a	_	.	63.956	.
.	.	4r	.	.	.	.
=41	=41	=41	=41	=41	=41	=41
*>Letter>K	*>Letter>K	*>Letter>K	*>Letter>K	*>Letter>K	*>Letter>K	*>Letter>K
*>Label>Interlude	*>Label>Interlude	*>Label>Interlude	*>Label>Interlude	*>Label>Interlude	*>Label>Interlude	*>Label>Interlude
1Am	A:min	1r	.	.	65.585	newline
=42	=42	=42	=42	=42	=42	=42
1Am	A:min/b7	1r	.	.	67.211	.
=43	=43	=43	=43	=43	=43	=43
1Am	A:min/6	1r	.	.	68.838	.
=44	=44	=44	=44	=44	=44	=44
2FMM	F:maj7	1r	.	.	70.465	.
2EMm	E:7	.	.	.	71.278	.
=45	=45	=45	=45	=45	=45	=45
1Am	A:min	1r	.	.	72.091	newline
=46	=46	=46	=46	=46	=46	=46
1Am	A:min/b7	1r	.	.	73.704	.
=47	=47	=47	=47	=47	=47	=47
1Am	A:min/6	1r	.	.	75.317	.
=48	=48	=48	=48	=48	=48	=48
2FMM	F:maj7	1r	.	.	76.93	.
2EMm	E:7	.	.	.	77.736	.
=49	=49	=49	=49	=49	=49	=49
*>Letter>A	*>Letter>A	*>Letter>A	*>Letter>A	*>Letter>A	*>Letter>A	*>Letter>A
*>Label>Verse	*>Label>Verse	*>Label>Verse	*>Label>Verse	*>Label>Verse	*>Label>Verse	*>Label>Verse
1Am	A:min	2r	.	.	78.542	newline
.	.	8A	Star-	.	.	.
.	.	4B	-ing	.	.	.
.	.	[8c	blind-	.	.	.
=50	=50	=50	=50	=50	=50	=50
1Am	A:min/b7	8c]	_	.	80.169	.
.	.	4d	-ly	.	.	.
.	.	4e	in-	.	.	.
.	.	4g	-to	.	.	.
.	.	[8a	space.	A	.	.
=51	=51	=51	=51	=51	=51	=51
1Am	A:min/6	4.a]	_	.	81.796	.
.	.	2r	.	.	.	.
.	.	8r	.	.	.	.
=52	=52	=52	=52	=52	=52	=52
2FMM	F:maj7	1r	.	.	83.422	.
2EMm	E:7	.	.	.	84.236	.
=53	=53	=53	=53	=53	=53	=53
1Am	A:min	2r	.	.	85.049	newline
.	.	8A	Get-	.	.	.
.	.	4B	-ting	.	.	.
.	.	[8c	up	.	.	.
=54	=54	=54	=54	=54	=54	=54
1Am	A:min/b7	8c]	_	.	86.67	.
.	.	4d	to	.	.	.
.	.	4e	splash	.	.	.
.	.	4g	my	.	.	.
.	.	[8a	face.	A	.	.
=55	=55	=55	=55	=55	=55	=55
1Am	A:min/6	2a]	_	.	88.29	.
.	.	2r	.	.	.	.
=56	=56	=56	=56	=56	=56	=56
2FMM	F:maj7	1r	.	.	89.911	.
2EMm	E:7	.	.	.	90.721	.
=57	=57	=57	=57	=57	=57	=57
1Am	A:min	2r	.	.	91.531	newline
.	.	8a	Wan-	.	.	.
.	.	4b	-ting	.	.	.
.	.	[8cc	just	.	.	.
=58	=58	=58	=58	=58	=58	=58
1Am	A:min/b7	8cc]	_	.	93.157	.
.	.	4b	to	.	.	.
.	.	4a	stay	A	.	.
.	.	4b	a-	.	.	.
.	.	[8a	-wake.	A	.	.
=59	=59	=59	=59	=59	=59	=59
1Am	A:min/6	2a]	_	.	94.782	.
.	.	2e	_	.	.	.
=60	=60	=60	=60	=60	=60	=60
2FMM	F:maj7	1r	.	.	96.408	.
2EMm	E:7	.	.	.	97.221	.
=61	=61	=61	=61	=61	=61	=61
1Am	A:min	2r	.	.	98.033	newline
.	.	8A	Won-	.	.	.
.	.	4B	-dering	.	.	.
.	.	[8c	how	.	.	.
=62	=62	=62	=62	=62	=62	=62
1Am	A:min/b7	8c]	_	.	99.665	.
.	.	4d	much	.	.	.
.	.	4e	I	.	.	.
.	.	4g	can	.	.	.
.	.	[8a	take.	A	.	.
=63	=63	=63	=63	=63	=63	=63
1Am	A:min/6	8a]	_	.	101.296	.
.	.	8.a	_	.	.	.
.	.	16g	_	.	.	.
.	.	8e	_	.	.	.
.	.	2r	.	.	.	.
=64	=64	=64	=64	=64	=64	=64
2FMM	F:maj7	1r	.	.	102.927	.
2EMm	E:7	.	.	.	103.743	.
=65	=65	=65	=65	=65	=65	=65
*>Letter>B	*>Letter>B	*>Letter>B	*>Letter>B	*>Letter>B	*>Letter>B	*>Letter>B
*>Label>Chorus	*>Label>Chorus	*>Label>Chorus	*>Label>Chorus	*>Label>Chorus	*>Label>Chorus	*>Label>Chorus
1FM	F:maj	2r	.	.	104.559	newline
.	.	8a	Shoudl	.	.	.
.	.	4b	I	.	.	.
.	.	[8cc	try	.	.	.
=66	=66	=66	=66	=66	=66	=66
1FM	F:maj	8cc]	_	.	106.182	.
.	.	4b	to	.	.	.
.	.	4a	do	.	.	.
.	.	4b	some	.	.	.
.	.	[8g	more?.	C	.	.
=67	=67	=67	=67	=67	=67	=67
1CM	C:maj	1g_	_	.	107.805	.
=68	=68	=68	=68	=68	=68	=68
1CM	C:maj	2g]	_	.	109.427	.
.	.	2r	.	.	.	.
=69	=69	=69	=69	=69	=69	=69
1GM	G:maj	2r	.	.	111.05	.
.	.	8g	Twen-	.	.	.
.	.	4a	-ty-	.	.	.
.	.	[8g	-five	.	.	.
=70	=70	=70	=70	=70	=70	=70
1GM	G:maj	8g]	_	.	112.673	.
.	.	4f	or	.	.	.
.	.	4e	six	.	.	.
.	.	4g	to	.	.	.
.	.	[8f	four	C	.	.
=71	=71	=71	=71	=71	=71	=71
1FM	F:maj	2f]	_	.	114.296	.
.	.	2a	_	.	.	.
=72	=72	=72	=72	=72	=72	=72
1FM	F:maj	[1cc	_	.	115.919	.
=73	=73	=73	=73	=73	=73	=73
*>Letter>D	*>Letter>D	*>Letter>D	*>Letter>D	*>Letter>D	*>Letter>D	*>Letter>D
*>Label>Instrumental	*>Label>Instrumental	*>Label>Instrumental	*>Label>Instrumental	*>Label>Instrumental	*>Label>Instrumental	*>Label>Instrumental
1Am	A:min	8cc]	_	.	117.542	newline
.	.	4a	yeah.	.	.	.
.	.	2r	.	.	.	.
.	.	8r	.	.	.	.
=74	=74	=74	=74	=74	=74	=74
1Am	A:min/b7	1r	.	.	119.167	.
=75	=75	=75	=75	=75	=75	=75
1Am	A:min/6	1r	.	.	120.793	.
=76	=76	=76	=76	=76	=76	=76
2FMM	F:maj7	1r	.	.	122.418	.
2EMm	E:7	.	.	.	123.231	.
=77	=77	=77	=77	=77	=77	=77
1Am	A:min	1r	.	.	124.043	newline
=78	=78	=78	=78	=78	=78	=78
1Am	A:min/b7	1r	.	.	125.649	.
=79	=79	=79	=79	=79	=79	=79
1Am	A:min/6	1r	.	.	127.254	.
=80	=80	=80	=80	=80	=80	=80
2FMM	F:maj7	1r	.	.	128.86	.
2EMm	E:7	.	.	.	129.663	.
=81	=81	=81	=81	=81	=81	=81
1Am	A:min	1r	.	.	130.466	newline
=82	=82	=82	=82	=82	=82	=82
1Am	A:min/b7	1r	.	.	132.095	.
=83	=83	=83	=83	=83	=83	=83
1Am	A:min/6	1r	.	.	133.725	.
=84	=84	=84	=84	=84	=84	=84
2FMM	F:maj7	1r	.	.	135.355	.
2EMm	E:7	.	.	.	136.17	.
=85	=85	=85	=85	=85	=85	=85
1Am	A:min	1r	.	.	136.985	newline
=86	=86	=86	=86	=86	=86	=86
1Am	A:min/b7	1r	.	.	138.598	.
=87	=87	=87	=87	=87	=87	=87
1Am	A:min/6	1r	.	.	140.212	.
=88	=88	=88	=88	=88	=88	=88
2FMM	F:maj7	1r	.	.	141.825	.
2EMm	E:7	.	.	.	142.631	.
=89	=89	=89	=89	=89	=89	=89
1Am	A:min	1r	.	.	143.438	newline
=90	=90	=90	=90	=90	=90	=90
1Am	A:min/b7	1r	.	.	145.05	.
=91	=91	=91	=91	=91	=91	=91
1Am	A:min/6	1r	.	.	146.662	.
=92	=92	=92	=92	=92	=92	=92
2FMM	F:maj7	1r	.	.	148.274	.
2EMm	E:7	.	.	.	149.08	.
=93	=93	=93	=93	=93	=93	=93
1Am	A:min	1r	.	.	149.886	newline
=94	=94	=94	=94	=94	=94	=94
1Am	A:min/b7	1r	.	.	151.488	.
=95	=95	=95	=95	=95	=95	=95
1Am	A:min/6	1r	.	.	153.089	.
=96	=96	=96	=96	=96	=96	=96
2FMM	F:maj7	1r	.	.	154.691	.
2EMm	E:7	.	.	.	155.491	.
=97	=97	=97	=97	=97	=97	=97
1Am	A:min	1r	.	.	156.292	newline
=98	=98	=98	=98	=98	=98	=98
1Am	A:min/b7	1r	.	.	157.912	.
=99	=99	=99	=99	=99	=99	=99
1Am	A:min/6	1r	.	.	159.533	.
=100	=100	=100	=100	=100	=100	=100
2FMM	F:maj7	1r	.	.	161.153	.
2EMm	E:7	.	.	.	161.963	.
=101	=101	=101	=101	=101	=101	=101
1Am	A:min	1r	.	.	162.773	newline
=102	=102	=102	=102	=102	=102	=102
1Am	A:min/b7	1r	.	.	164.396	.
=103	=103	=103	=103	=103	=103	=103
1Am	A:min/6	1r	.	.	166.018	.
=104	=104	=104	=104	=104	=104	=104
2FMM	F:maj7	1r	.	.	167.641	.
2EMm	E:7	.	.	.	168.452	.
=105	=105	=105	=105	=105	=105	=105
1Am	A:min	1r	.	.	169.263	newline
=106	=106	=106	=106	=106	=106	=106
1Am	A:min/b7	1r	.	.	170.864	.
=107	=107	=107	=107	=107	=107	=107
1Am	A:min/6	1r	.	.	172.465	.
=108	=108	=108	=108	=108	=108	=108
2FMM	F:maj7	1r	.	.	174.066	.
2EMm	E:7	.	.	.	174.866	.
=109	=109	=109	=109	=109	=109	=109
1Am	A:min	1r	.	.	175.667	newline
=110	=110	=110	=110	=110	=110	=110
1Am	A:min/b7	1r	.	.	177.261	.
=111	=111	=111	=111	=111	=111	=111
1Am	A:min/6	1r	.	.	178.856	.
=112	=112	=112	=112	=112	=112	=112
2FMM	F:maj7	1r	.	.	180.45	.
2EMm	E:7	.	.	.	181.247	.
=113	=113	=113	=113	=113	=113	=113
1Am	A:min	1r	.	.	182.044	newline
=114	=114	=114	=114	=114	=114	=114
1Am	A:min/b7	1r	.	.	183.631	.
=115	=115	=115	=115	=115	=115	=115
1Am	A:min/6	1r	.	.	185.217	.
=116	=116	=116	=116	=116	=116	=116
2FMM	F:maj7	1r	.	.	186.803	.
2EMm	E:7	.	.	.	187.597	.
=117	=117	=117	=117	=117	=117	=117
1Am	A:min	1r	.	.	188.39	newline
=118	=118	=118	=118	=118	=118	=118
1Am	A:min/b7	1r	.	.	190.001	.
=119	=119	=119	=119	=119	=119	=119
1Am	A:min/6	1r	.	.	191.612	.
=120	=120	=120	=120	=120	=120	=120
2FMM	F:maj7	1r	.	.	193.223	.
2EMm	E:7	.	.	.	194.028	.
=121	=121	=121	=121	=121	=121	=121
*>Letter>H	*>Letter>H	*>Letter>H	*>Letter>H	*>Letter>H	*>Letter>H	*>Letter>H
*>Label>Preverse	*>Label>Preverse	*>Label>Preverse	*>Label>Preverse	*>Label>Preverse	*>Label>Preverse	*>Label>Preverse
1Am	A:min	1r	.	.	194.833	newline
=122	=122	=122	=122	=122	=122	=122
1Am	A:min/b7	1r	.	.	196.474	.
=123	=123	=123	=123	=123	=123	=123
1Am	A:min/6	1r	.	.	198.115	.
=124	=124	=124	=124	=124	=124	=124
2FMM	F:maj7	1r	.	.	199.756	.
2EMm	E:7	.	.	.	200.576	.
=125	=125	=125	=125	=125	=125	=125
1Am	A:min	1r	.	.	201.397	newline
=126	=126	=126	=126	=126	=126	=126
1Am	A:min/b7	1r	.	.	203.014	.
=127	=127	=127	=127	=127	=127	=127
1Am	A:min/6	1r	.	.	204.631	.
=128	=128	=128	=128	=128	=128	=128
2FMM	F:maj7	1r	.	.	206.249	.
2EMm	E:7	.	.	.	207.058	.
=129	=129	=129	=129	=129	=129	=129
1Am	A:min	1r	.	.	207.866	newline
=130	=130	=130	=130	=130	=130	=130
1Am	A:min/b7	1r	.	.	209.485	.
=131	=131	=131	=131	=131	=131	=131
1Am	A:min/6	1r	.	.	211.103	.
=132	=132	=132	=132	=132	=132	=132
2FMM	F:maj7	1r	.	.	212.721	.
2EMm	E:7	.	.	.	213.53	.
=133	=133	=133	=133	=133	=133	=133
1Am	A:min	1r	.	.	214.339	newline
=134	=134	=134	=134	=134	=134	=134
1Am	A:min/b7	1r	.	.	215.95	.
=135	=135	=135	=135	=135	=135	=135
1Am	A:min/6	1r	.	.	217.562	.
=136	=136	=136	=136	=136	=136	=136
2FMM	F:maj7	1r	.	.	219.173	.
2EMm	E:7	.	.	.	219.979	.
=137	=137	=137	=137	=137	=137	=137
*>Letter>A	*>Letter>A	*>Letter>A	*>Letter>A	*>Letter>A	*>Letter>A	*>Letter>A
*>Label>Verse	*>Label>Verse	*>Label>Verse	*>Label>Verse	*>Label>Verse	*>Label>Verse	*>Label>Verse
1Am	A:min	2r	.	.	220.785	newline
.	.	8A	Fee-	.	.	.
.	.	4B	-ling	.	.	.
.	.	[8c	like	.	.	.
=138	=138	=138	=138	=138	=138	=138
1Am	A:min/b7	8c]	_	.	222.405	.
.	.	4d	I	.	.	.
.	.	4e	ought	.	.	.
.	.	4g	to	.	.	.
.	.	[8a	sleep.	D	.	.
=139	=139	=139	=139	=139	=139	=139
1Am	A:min/6	8a]	_	.	224.025	.
.	.	8.a	_	.	.	.
.	.	16g	_	.	.	.
.	.	8e	_	.	.	.
.	.	2r	.	.	.	.
=140	=140	=140	=140	=140	=140	=140
2FMM	F:maj7	1r	.	.	225.645	.
2EMm	E:7	.	.	.	226.455	.
=141	=141	=141	=141	=141	=141	=141
1Am	A:min	2r	.	.	227.265	newline
.	.	8A	Spin-	.	.	.
.	.	4B	-ning	.	.	.
.	.	[8c	room	.	.	.
=142	=142	=142	=142	=142	=142	=142
1Am	A:min/b7	8c]	_	.	228.871	.
.	.	4d	is	.	.	.
.	.	4e	sink-	.	.	.
.	.	4g	-ing	.	.	.
.	.	[8a	deep.	D	.	.
=143	=143	=143	=143	=143	=143	=143
1Am	A:min/6	8a]	_	.	230.476	.
.	.	8.a	_	.	.	.
.	.	16g	_	.	.	.
.	.	8e	_	.	.	.
.	.	2r	.	.	.	.
=144	=144	=144	=144	=144	=144	=144
2FMM	F:maj7	1r	.	.	232.081	.
2EMm	E:7	.	.	.	232.884	.
=145	=145	=145	=145	=145	=145	=145
1Am	A:min	2r	.	.	233.686	newline
.	.	8a	Sear-	.	.	.
.	.	4b	-ching	.	.	.
.	.	[8cc	for	.	.	.
=146	=146	=146	=146	=146	=146	=146
1Am	A:min/b7	8cc]	_	.	235.29	.
.	.	4b	some-	.	.	.
.	.	4a	-thing	.	.	.
.	.	4b	to	.	.	.
.	.	[8a	say.	A	.	.
=147	=147	=147	=147	=147	=147	=147
1Am	A:min/6	2a]	_	.	236.894	.
.	.	2e	_	.	.	.
=148	=148	=148	=148	=148	=148	=148
2FMM	F:maj7	1r	.	.	238.498	.
2EMm	E:7	.	.	.	239.3	.
=149	=149	=149	=149	=149	=149	=149
1Am	A:min	2r	.	.	240.102	newline
.	.	8A	Wait-	.	.	.
.	.	4B	-ing	.	.	.
.	.	[8c	for	.	.	.
=150	=150	=150	=150	=150	=150	=150
1Am	A:min/b7	8c]	_	.	241.713	.
.	.	4d	the	.	.	.
.	.	4e	break	.	.	.
.	.	4g	of	.	.	.
.	.	[8a	day.	A	.	.
=151	=151	=151	=151	=151	=151	=151
1Am	A:min/6	8a]	_	.	243.324	.
.	.	8.a	_	.	.	.
.	.	16g	_	.	.	.
.	.	8e	_	.	.	.
.	.	2r	.	.	.	.
=152	=152	=152	=152	=152	=152	=152
2FMM	F:maj7	6cc	Hoo.	.	244.936	.
.	.	6a	_	.	.	.
.	.	6a	_	.	.	.
2EMm	E:7	4a	_	.	245.742	.
.	.	16a	_	.	.	.
.	.	16g	_	.	.	.
.	.	8e	_	.	.	.
=153	=153	=153	=153	=153	=153	=153
*>Letter>B	*>Letter>B	*>Letter>B	*>Letter>B	*>Letter>B	*>Letter>B	*>Letter>B
*>Label>Chorus	*>Label>Chorus	*>Label>Chorus	*>Label>Chorus	*>Label>Chorus	*>Label>Chorus	*>Label>Chorus
1FM	F:maj	2r	.	.	246.547	newline
.	.	8a	Twen-	.	.	.
.	.	4b	-ty-	.	.	.
.	.	[8cc	-five	.	.	.
=154	=154	=154	=154	=154	=154	=154
1FM	F:maj	8cc]	_	.	248.168	.
.	.	4b	or	.	.	.
.	.	4a	six	.	.	.
.	.	4b	to	.	.	.
.	.	[8g	four.	C	.	.
=155	=155	=155	=155	=155	=155	=155
1CM	C:maj	1g_	_	.	249.788	.
=156	=156	=156	=156	=156	=156	=156
1CM	C:maj	2g]	_	.	251.408	.
.	.	2r	.	.	.	.
=157	=157	=157	=157	=157	=157	=157
1GM	G:maj	2r	.	.	253.029	.
.	.	8g	Twen-	.	.	.
.	.	4a	-ty-	.	.	.
.	.	[8g	-five	.	.	.
=158	=158	=158	=158	=158	=158	=158
1GM	G:maj	8g]	_	.	254.649	.
.	.	4f	or	.	.	.
.	.	4e	six	.	.	.
.	.	4g	to	.	.	.
.	.	[8f	four.	C	.	.
=159	=159	=159	=159	=159	=159	=159
1FM	F:maj	2f]	_	.	256.269	.
.	.	2a	_	.	.	.
=160	=160	=160	=160	=160	=160	=160
1FM	F:maj	[1cc	All-	.	257.89	.
=161	=161	=161	=161	=161	=161	=161
*>Letter>J	*>Letter>J	*>Letter>J	*>Letter>J	*>Letter>J	*>Letter>J	*>Letter>J
*>Label>Outro	*>Label>Outro	*>Label>Outro	*>Label>Outro	*>Label>Outro	*>Label>Outro	*>Label>Outro
1Am	A:min	4cc]	_	.	259.51	newline
.	.	4a	-right.	.	.	.
.	.	2r	.	.	.	.
=162	=162	=162	=162	=162	=162	=162
1Am	A:min/b7	1r	.	.	261.121	.
=163	=163	=163	=163	=163	=163	=163
1Am	A:min/6	1r	.	.	262.733	.
=164	=164	=164	=164	=164	=164	=164
2FMM	F:maj7	1r	.	.	264.344	.
2EMm	E:7	.	.	.	265.15	.
=165	=165	=165	=165	=165	=165	=165
1Am	A:min	1r	.	.	265.956	newline
=166	=166	=166	=166	=166	=166	=166
1Am	A:min/b7	1r	.	.	267.559	.
=167	=167	=167	=167	=167	=167	=167
1Am	A:min/6	1r	.	.	269.162	.
=168	=168	=168	=168	=168	=168	=168
2FMM	F:maj7	1r	.	.	270.766	.
2EMm	E:7	.	.	.	271.567	.
=169	=169	=169	=169	=169	=169	=169
1Dm	D:min(9)	1r	.	.	272.369	newline
=170	=170	=170	=170	=170	=170	=170
1Cm	C:min(9)	1r	.	.	274.592	.
=171	=171	=171	=171	=171	=171	=171
1BMm	B:7(b9,b13)	1r	.	.	276.814	.
=172	=172	=172	=172	=172	=172	=172
1GMm	G:7/b3	1r	.	.	279.037	.
=173	=173	=173	=173	=173	=173	=173
1BM	B:maj/b7	1r	.	.	281.26	newline
=174	=174	=174	=174	=174	=174	=174
1BM	B:maj/b7	1r	.	.	283.488	.
=175	=175	=175	=175	=175	=175	=175
1BM	B:maj/b7	1r	.	.	285.715	.
1r;	1r	r;	.	.	288.222	.
1r;	1r	r;	.	.	290.017	.
*-	*-	*-	*-	*-	*-	*-
!!!BillboardChartDate: 1970/08/08, 1970/08/29, 1970/09/05
!!!BillboardPeak: 4, 4, 4
!!!BillboardWeeksOnChart: 20, 20, 20
!!!COC: Chicago
!!!ENC: Nathaniel Condit-Schultz
!!!EST: Awating manual error checking and editing.
!!!OTL: 25 Or 6 To 4
!!!RDF**chordsym: original McGill chord annotation + (implied pitch class set, with bass pitch in first position)
!!!RDF**harmony: **recip + pitch class of root + harmonic quality
!!!RDF**leadinstrument: original McGill primary instrumentation annotation
!!!RDF**phrase: newline = linebreak in original McGill transcription
!!!RDF**timestamp: McGill audio timestamp in seconds
!!!RDT: 2017/01/12/
!!!SampleActualRank: 27, 10,  6
!!!SampleID#: 176, 292, 1227
!!!SampleTargetRank: 26, 10,  5
!!!MBID: c7b5013a-01e4-4e20-b7e2-fe5d0b42234d